src/Resource_Files/fluent/document-edit.svg

<svg clip-rule="evenodd" fill-rule="evenodd" stroke-linejoin="round" stroke-miterlimit="2" viewBox="0 0 16 16" xmlns="http://www.w3.org/2000/svg"><g fill="#1abc9c"><path d="m13.245 2.817c1.087-1.086 2.849-1.086 3.936 0 1.041 1.042 1.085 2.704.13 3.797l-.13.139-9.606 9.606c-.205.205-.452.363-.723.462l-.165.053-4.055 1.106c-.347.095-.667-.194-.629-.534l.015-.08 1.106-4.055c.076-.28.212-.539.398-.76l.117-.128zm-.86 2.275-8.039 8.038c-.092.093-.165.202-.215.321l-.042.123-.877 3.211 3.212-.876c.084-.022.164-.056.239-.099l.107-.072.098-.086 8.038-8.039zm4.089-1.567c-.658-.658-1.702-.695-2.402-.11l-.12.11-.86.86 2.521 2.521.861-.86c.657-.658.694-1.701.109-2.402z" fill-rule="nonzero" transform="translate(-1.99579 -2.01519)"/><path d="m11.885 9.406 3.157 5.047c.193.308.204.697.027 1.015-.176.318-.511.515-.874.515-1.118 0-2.499 0-3.364 0-.517 0-.998-.266-1.272-.704l-1.365-2.182zm2.31 5.577-2.491-3.981-2.24 2.239.943 1.507c.091.146.252.235.424.235zm-10.078-8.403-3.159-5.05c-.193-.308-.204-.696-.027-1.015.176-.318.511-.515.874-.515h3.364c.517 0 .998.266 1.272.704l1.366 2.185zm-2.312-5.58 2.493 3.984 2.24-2.239-.945-1.51c-.091-.146-.252-.235-.424-.235z"/></g></svg>

<?xml version="1.0" encoding="UTF-8" standalone="no"?>
<!DOCTYPE svg PUBLIC "-//W3C//DTD SVG 1.1//EN" "http://www.w3.org/Graphics/SVG/1.1/DTD/svg11.dtd">
<svg width="100%" height="100%" viewBox="0 0 16 16" version="1.1" xmlns="http://www.w3.org/2000/svg" xmlns:xlink="http://www.w3.org/1999/xlink" xml:space="preserve" xmlns:serif="http://www.serif.com/" style="fill-rule:evenodd;clip-rule:evenodd;stroke-linejoin:round;stroke-miterlimit:2;">
    <g id="Pencil" transform="matrix(1,0,0,1,-1.99579,-2.01519)">
        <path d="M13.245,2.817C14.332,1.731 16.094,1.731 17.181,2.817C18.222,3.859 18.266,5.521 17.311,6.614L17.181,6.753L7.575,16.359C7.37,16.564 7.123,16.722 6.852,16.821L6.687,16.874L2.632,17.98C2.285,18.075 1.965,17.786 2.003,17.446L2.018,17.366L3.124,13.311C3.2,13.031 3.336,12.772 3.522,12.551L3.639,12.423L13.245,2.817ZM12.385,5.092L4.346,13.13C4.254,13.223 4.181,13.332 4.131,13.451L4.089,13.574L3.212,16.785L6.424,15.909C6.508,15.887 6.588,15.853 6.663,15.81L6.77,15.738L6.868,15.652L14.906,7.613L12.385,5.092ZM16.474,3.525C15.816,2.867 14.772,2.83 14.072,3.415L13.952,3.525L13.092,4.385L15.613,6.906L16.474,6.046C17.131,5.388 17.168,4.345 16.583,3.644L16.474,3.525Z" style="fill:rgb(26,188,156);fill-rule:nonzero;"/>
    </g>
    <path d="M11.885,9.406L15.042,14.453C15.235,14.761 15.246,15.15 15.069,15.468C14.893,15.786 14.558,15.983 14.195,15.983C13.077,15.983 11.696,15.983 10.831,15.983C10.314,15.983 9.833,15.717 9.559,15.279L8.194,13.097L11.885,9.406ZM14.195,14.983L11.704,11.002L9.464,13.241L10.407,14.748C10.498,14.894 10.659,14.983 10.831,14.983L14.195,14.983ZM4.117,6.58L0.958,1.53C0.765,1.222 0.754,0.834 0.931,0.515C1.107,0.197 1.442,0 1.805,0C2.923,0 4.304,0 5.169,0C5.686,0 6.167,0.266 6.441,0.704L7.807,2.889L4.117,6.58ZM1.805,1L4.298,4.984L6.538,2.745L5.593,1.235C5.502,1.089 5.341,1 5.169,1L1.805,1Z" style="fill:rgb(26,188,156);"/>
</svg>
